X:668
T:Rachel Rae 
C:Joe Buchanan's Scottish Tome - Page 205.3
I:205 3
R:Reel
Z:Carl Allison
L:1/8
M:4/4
K:D
D2 FA d2 Ac | d2 fd e2 cA | d2 AF BAGF | EFGA FD D2 |]
defg a2 fd | g2 ba e2 cA | defg a2 fd | egfe fddA |
defg fafd | g2 bg e2 cA | d2 AF BAGF | EFGA FD D2 |]

